assets/images/page/contact/icons/linkedIn.svg

<svg width="21" height="21" viewBox="0 0 21 21" fill="none" xmlns="http://www.w3.org/2000/svg">
<g clip-path="url(#clip0)">
<path d="M18.9892 20.8614H2.00901C1.03871 20.8614 0.207031 20.0298 0.207031 19.0595V1.94065C0.207031 0.970355 1.03871 0.138672 2.00901 0.138672H19.0585C20.0981 0.138672 20.8605 0.970355 20.8605 1.94065V19.0595C20.8605 20.0298 20.0288 20.8614 18.9892 20.8614ZM2.00901 0.901048C1.38525 0.901048 0.9001 1.3862 0.9001 1.94065V19.0595C0.9001 19.6832 1.38525 20.1684 2.00901 20.1684H19.0585C19.6823 20.1684 20.1674 19.6832 20.1674 19.0595V1.94065C20.1674 1.31689 19.6823 0.831741 19.0585 0.831741H2.00901V0.901048Z" fill="#12133C" stroke="#12133C" stroke-width="0.5" stroke-miterlimit="10"/>
<path d="M6.79135 17.8814H3.11808V7.69331H6.79135V17.8814ZM3.81115 17.1884H6.09828V8.38638H3.81115V17.1884ZM4.98936 7.06955C3.88045 7.06955 2.91016 6.16856 2.91016 4.99034C2.91016 3.81212 3.81115 2.91113 4.98936 2.91113C6.09828 2.91113 7.06857 3.81212 7.06857 4.99034C7.06857 6.16856 6.09828 7.06955 4.98936 7.06955ZM4.98936 3.6042C4.22699 3.6042 3.60323 4.22796 3.60323 4.99034C3.60323 5.75272 4.22699 6.37648 4.98936 6.37648C5.75174 6.37648 6.3755 5.75272 6.3755 4.99034C6.3755 4.22796 5.75174 3.6042 4.98936 3.6042Z" fill="#12133C" stroke="#12133C" stroke-width="0.5" stroke-miterlimit="10"/>
<path d="M17.8806 17.8814H14.2073V12.8913C14.2073 11.4358 13.9994 10.7427 13.0291 10.7427C11.9895 10.7427 11.5737 11.3665 11.5737 12.822V17.8814H7.90039V7.69324H11.435V8.38631C11.9895 7.83186 12.8212 7.41602 13.9301 7.41602C17.3954 7.41602 17.8113 9.91106 17.8113 12.3368V17.8814H17.8806ZM14.9004 17.1883H17.1875V12.3368C17.1875 9.77245 16.6331 8.10908 13.9994 8.10908C12.6826 8.10908 11.8509 8.87146 11.5044 9.49522L11.435 9.70314H10.8806L10.8113 9.35661V8.38631H8.66277V17.2576H10.9499V12.8913C10.9499 12.1289 10.9499 10.119 13.0984 10.119C14.9697 10.119 14.9697 11.9903 14.9697 12.9606V17.1883H14.9004Z" fill="#12133C" stroke="#12133C" stroke-width="0.5" stroke-miterlimit="10"/>
</g>
<defs>
<clipPath id="clip0">
<rect width="21" height="21" fill="white"/>
</clipPath>
</defs>
</svg>

<svg width="21" height="21" fill="none" xmlns="http://www.w3.org/2000/svg"><g clip-path="url(#a)" fill="#12133C" stroke="#12133C" stroke-width=".5" stroke-miterlimit="10"><path d="M18.99 20.861H2.008c-.97 0-1.802-.831-1.802-1.802V1.942C.206.972 1.038.14 2.008.14h17.05a1.79 1.79 0 0 1 1.802 1.8v17.118c0 .97-.831 1.802-1.87 1.802ZM2.008.901C1.385.901.9 1.386.9 1.941v17.118c0 .624.485 1.11 1.109 1.11h17.05c.623 0 1.108-.486 1.108-1.11V1.942c0-.624-.485-1.11-1.109-1.11H2.01v.07Z"/><path d="M6.791 17.881H3.118V7.693h3.673v10.188Zm-2.98-.693h2.287V8.386H3.811v8.802ZM4.99 7.07a2.085 2.085 0 0 1-2.08-2.08c0-1.178.901-2.079 2.08-2.079 1.108 0 2.079.901 2.079 2.08 0 1.178-.97 2.079-2.08 2.079Zm0-3.466A1.39 1.39 0 0 0 3.603 4.99 1.39 1.39 0 0 0 4.99 6.376 1.39 1.39 0 0 0 6.375 4.99 1.39 1.39 0 0 0 4.99 3.604Zm12.89 14.277h-3.673v-4.99c0-1.455-.208-2.148-1.178-2.148-1.04 0-1.455.623-1.455 2.079v5.06H7.9V7.692h3.535v.693c.554-.554 1.386-.97 2.495-.97 3.465 0 3.881 2.495 3.881 4.92v5.545h.07Zm-2.98-.693h2.287v-4.851c0-2.565-.554-4.228-3.188-4.228-1.316 0-2.148.762-2.495 1.386l-.069.208h-.554l-.07-.346v-.97H8.663v8.87h2.287v-4.366c0-.762 0-2.772 2.148-2.772 1.872 0 1.872 1.871 1.872 2.842v4.227h-.07Z"/></g><defs><clipPath id="a"><path fill="#fff" d="M0 0h21v21H0z"/></clipPath></defs></svg>
